!!!!SEGMENT: pl-sa--579-a-ix-59_anonim--julz-z-llez-otrzyjcie.krn
!!!cenid: 17xx:1479
!!!COM: Anonim
!!!COM-rismID: pe30004985
!!!CDT:
!!!CNT:
!!!OTL: Już z łez otrzyjcie
!!!PDT:
!!!AGN:
!!!SMS-siglum: PL-SA
!!!SMS-shelfmark: 579/A IX 59
!!!SMS-shelfwork: W
!!!SMS-variant:
!!!SMS-altvar:
!!!NIFC-rismSourceID: 1001072149
!!!NIFC-islandoraID:
!!!URL-pdf-islandora:
!!!URL-scan: https://bc.bdsandomierz.pl/dlibra/publication/1389/edition/1357/content @EN{Scan in the Sandomierz Diocese Digital Library} @PL{Skany w portalu Cyfrowa Biblioteka Diecezjalna w Sandomierzu}
!!!ONB-nifc:
!!!AIN: 1 alto 1 soprn 1 tenor
!!!key: D
**kern	**text	**kern	**text	**kern	**text
*part3	*part3	*part2	*part2	*part1	*part1
*staff3	*staff3	*staff2	*staff2	*staff1	*staff1
*I"Tenore	*	*I"Alto	*	*I"Canto	*
*I'T	*	*I'A	*	*I'S	*
*Itenor	*	*Ialto	*	*Isoprn	*
*ICvox	*	*ICvox	*	*ICvox	*
*clefC4	*	*clefC3	*	*clefC1	*
*k[f#c#]	*	*k[c#f#]	*	*k[f#c#]	*
*D:	*	*D:	*	*D:	*
*M2/4	*	*M2/4	*	*M2/4	*
=1	=1	=1	=1	=1	=1
!	!	!	!	!LO:TX:t=P:znaki:problem= cc# zamiast c#	!
!LO:TX:a:B:t=Grave	!	!LO:TX:a:B:t=Grawe	!	!LO:TX:a:B:t=Grave	!
(16d\LL	Już	8a\	Już	(16ff#\LL	Już
16c#\JJ)	.	.	.	16ee\JJ)	.
16d\	z łez	16a\	z łez	16ff#\	z łez
16e\	o-	16a\	o-	16gg\	o-
8d\	-trzy-	8a\	-trzy-	8ff#\	-trzy-
8d\	-cie	8a\	-cie	8ff#\	-cie
=2	=2	=2	=2	=2	=2
16c#\	pła-	16g\	pła-	16ee\	pła-
16B\	-czli-	16f#\	-czli-	16dd\	-czli-
16A\	-we	16e\	-we	16cc#\	-we
!	!	!LO:TX:t=P::problem=inną ręką poprawiony tekst&colon; zrzenice	!	!	!
16B\	zre-	16g\	po-	16dd\	zre-
8c#\	-ni-	8a\	-wie-	8ee\	-ni-
8c#\	-ce	8a\	-ki	8ee\	-ce
=3	=3	=3	=3	=3	=3
!LO:TX:a:t=2	!	!	!	!LO:TX:a:t=2	!
!LO:N:vis=0	!	!	!	!LO:N:vis=0	!
1r	.	8f#\	Gorz-	1r	.
.	.	8d\	-kie	.	.
.	.	(16e\LL	Ser-	.	.
.	.	16d\JJ)	.	.	.
.	.	(16e\LL	-ca	.	.
.	.	16f#\JJ)	.	.	.
!	!	!LO:LB:g=original	!	!	!
=4	=4	=4	=4	=4	=4
.	.	(16g\LL	ta-	.	.
.	.	16f#\JJ)	.	.	.
.	.	16g\	-muy-	.	.
.	.	16e\	-cie	.	.
.	.	8f#\	Ża-	.	.
.	.	8f#\	-le	.	.
=5	=5	=5	=5	=5	=5
(16d\LL	Cor-	8a\	Cor-	(16ff#\LL	Cor-
16c#\JJ)	.	.	.	16ee\JJ)	.
16d\	-ki	16a\	-ki	16ff#\	-ki
16e\	Sy-	16a\	Sy-	16gg\	Sy-
!LO:LB:g=original	!	!	!	!LO:LB:g=original	!
8d\	-on-	8a\	-on-	8ff#\	-on-
8d\	-skie	8a\	-skie	8ff#\	-skie
=6	=6	=6	=6	=6	=6
16c#\	wy-	16g\	wy-	16ee\	wy-
16B\	-po-	16f#\	-po-	16dd\	-po-
16A\	-godz-	16e\	-godz-	16cc#\	-godz-
16B\	-cie	16g\	-cie	16dd\	-cie
8c#\	li-	8a\	li-	8ee\	li-
8c#\	-ce	8a\	-ce	8ee\	-ce
!	!	!LO:LB:g=original	!	!	!
=7	=7	=7	=7	=7	=7
!LO:TX:a:t=2	!	!	!	!LO:TX:a:t=2	!
!LO:N:vis=0	!	!	!	!LO:N:vis=0	!
1r	.	8f#\	Już	1r	.
.	.	8d\	bu-	.	.
.	.	(16e\LL	-rzli-	.	.
.	.	16d\JJ)	.	.	.
.	.	(16e\LL	-we	.	.
.	.	16f#\JJ)	.	.	.
=8	=8	=8	=8	=8	=8
.	.	(16g\LL	u-	.	.
.	.	16f#\JJ)	.	.	.
.	.	16g\	-sta-	.	.
.	.	16e\	-ły	.	.
.	.	8f#\	fa-	.	.
.	.	8f#\	-le	.	.
=9!|:	=9!|:	=9!|:	=9!|:	=9!|:	=9!|:
!	!	!LO:TX:a:t=8	!	!	!
!	!	!LO:N:vis=00	!	!	!
4d\	Wy-	0r	.	4a\	Wy-
(16d\LL	-cie-	.	.	(16dd\LL	-cie-
16c#\JJ)	.	.	.	16ee\JJ)	.
(16d\LL	-kły	.	.	(16ff#\LL	-kły
16e\JJ)	.	.	.	16gg\JJ)	.
=10	=10	=10	=10	=10	=10
(8f#\L	Cza-	.	.	(8aa\L	cza-
8e\J)	.	.	.	8gg\J)	.
8qqe/	.	.	.	.	.
4d\	-sy	.	.	4ff#\	-sy
=11	=11	=11	=11	=11	=11
(8f#\L	przy-	.	.	(8aa\L	przy-
8e\J)	.	.	.	8gg\J)	.
!LO:LB:g=original	!	!	!	!	!
8d\	-krey	.	.	8ff#\	-krey
8f#\	Nie-	.	.	8aa\	Nie-
!	!	!	!	!LO:LB:g=original	!
=12	=12	=12	=12	=12-	=12
8f#\L	-wo-	.	.	(8aa\L	-wo-
(16e\L	.	.	.	16gg\L	.
16d\JJ)	.	.	.	16ff#\JJ)	.
8qqf#/	.	.	.	8qqaa/	.
4e\	-li	.	.	4gg\	-li
=13	=13	=13	=13	=13	=13
!	!	!LO:N:vis=00	!	!	!
4c#\	Z wiel-	0r	.	4a\	Z wiel-
8A\	-kim	.	.	8cc#\	-kim
8c#\	Try-	.	.	8ee\	Try-
=14	=14	=14	=14	=14	=14
(8e\L	-um-	.	.	(8gg\L	-um-
8c#\J)	.	.	.	8ee\J)	.
8qqe/	.	.	.	8qqgg/	.
4d\	-fem	.	.	4ff#\	-fem
=15	=15	=15	=15	=15	=15
(8e\L	Z po-	.	.	(8gg\L	Z po-
8d\J)	.	.	.	8ff#\J)	.
8c#\	-cie-	.	.	8ee\	-cie-
8d\	-chą	.	.	8ff#\	-chą
!LO:LB:g=original	!	!	!	!	!
=16	=16	=16	=16	=16	=16
8e\L	wo-	.	.	8gg\L	wo-
(16d\L	.	.	.	(16ff#\L	.
16c#\JJ)	.	.	.	16ee\JJ)	.
8qqe/	.	.	.	8qqgg/	.
4d\	-li	.	.	4ff#\	-li
=17:|!|:	=17:|!|:	=17:|!|:	=17:|!|:	=17:|!|:	=17:|!|:
4c#\	Pa-	4a\	Pa-	4ee\	Pa-
4d\	-sterz	4a\	-sterz	4ff#\	-sterz
!	!	!	!	!LO:LB:g=original	!
=18	=18	=18	=18	=18	=18
*2\right	*	*2\right	*	*2\right	*
2e;\	Waſz	2a;\	Waſz	2gg;\	Waſz
=19	=19	=19	=19	=19	=19
!	!	!LO:TX:a:rj:t=bis	!	!	!
8e\	w swey	8a\	w Swey	8gg\	w Swey
!LO:TX:a:t=bis	!	!LO:LB:g=original	!	!	!
8d\	ka-	8a\	ka-	8ff#\	ka-
!	!	!	!	!LO:TX:a:rj:t=bis	!
8c#\	-te-	8a\	-te-	8ee\	-te-
8d\	-drze	8a\	-drze	8ff#\	-drze
=20	=20	=20	=20	=20	=20
4e\	Sta-	4a\	Sta-	4gg\	Sta-
4d;\	-wa	4a;\	-wa	4ff#;\	-wa
!LO:TX:b:t=Amen	!	!LO:TX:b:t=Amen	!	!LO:TX:b:t=Amen	!
=:|!	=:|!	=:|!	=:|!	=:|!	=:|!
*-	*-	*-	*-	*-	*-
!!!system-decoration: [(s1,s2,s3)]
!!!ENC: Katarzyna Serwa
!!!END: 2022-02-12
!!!ENC: Katarzyna Serwa
!!!END: 2020-12-05
!!!YEC: Copyright 2022 Narodowy Instytut Fryderyka Chopina (https://polishscores.org)
!!!YEM: Licence CC BY 4.0 (https://creativecommons.org/licenses/by/4.0)
